!!!OTL: TANZE TANZE TELEMANN
!!!ARE: Europa, Mitteleuropa, Deutschland, Wetterau, Bettenhausen
!!!SCT: K2084
!!!YEM: Copyright 1995, estate of Helmut Schaffrath.
**kern
*ICvox
*Ivox
*M2/4
*k[]
*C:
=1
{8g
8g
8a
8a
=2
8g
8f
8e}
{8c
=3
8g
8g
8a
8a
=4
8g
8f
4e}
=5
{8g
8g
8a
8a
=6
4g
8e}
{8c
=7
8g
8g
16a
16a
8a
=8
4g
8e
24cc
24cc
24cc
=9
2cc}
==
!!!AGN: Kinder - Lied, Reigen, Tanz - Spiel
!!!ONB: ESAC (Essen Associative Code) Database: KINDER
!!!AMT: simple duple
!!!AIN: vox
!!!EED: Helmut Schaffrath
!!!EEV: 1.0
*-
